dist/img/leasing-mult/advantage-4.svg

<svg width="73" height="80" viewBox="0 0 73 80" fill="none" xmlns="http://www.w3.org/2000/svg">
<g clip-path="url(#clip0_3164_2508)">
<path d="M71.9113 1.05801H1.04883V78.9356H71.9113V1.05801Z" stroke="#231F20" stroke-width="2" stroke-linecap="round" stroke-linejoin="round"/>
<path d="M17.6978 33.2148H7.86133V43.1348H17.6978V33.2148Z" stroke="#231F20" stroke-width="2" stroke-linecap="round" stroke-linejoin="round"/>
<path d="M33.4146 33.2147H23.5781V43.1347H33.4146V33.2147Z" stroke="#231F20" stroke-width="2" stroke-linecap="round" stroke-linejoin="round"/>
<path d="M65.9926 9.95923H6.98047V25.8547H65.9926V9.95923Z" stroke="#231F20" stroke-width="2" stroke-linecap="round" stroke-linejoin="round"/>
<path d="M49.1372 33.2147H39.3008V43.1347H49.1372V33.2147Z" stroke="#231F20" stroke-width="2" stroke-linecap="round" stroke-linejoin="round"/>
<path d="M64.853 33.2148H55.0166V43.1348H64.853V33.2148Z" stroke="#231F20" stroke-width="2" stroke-linecap="round" stroke-linejoin="round"/>
<path d="M17.6978 47.9608H7.86133V57.8808H17.6978V47.9608Z" stroke="#231F20" stroke-width="2" stroke-linecap="round" stroke-linejoin="round"/>
<path d="M33.4146 47.9608H23.5781V57.8808H33.4146V47.9608Z" stroke="#231F20" stroke-width="2" stroke-linecap="round" stroke-linejoin="round"/>
<path d="M49.1372 47.9608H39.3008V57.8808H49.1372V47.9608Z" stroke="#231F20" stroke-width="2" stroke-linecap="round" stroke-linejoin="round"/>
<path d="M64.853 47.9608H55.0166V57.8808H64.853V47.9608Z" stroke="#231F20" stroke-width="2" stroke-linecap="round" stroke-linejoin="round"/>
<path d="M17.6978 62.7135H7.86133V72.6335H17.6978V62.7135Z" stroke="#231F20" stroke-width="2" stroke-linecap="round" stroke-linejoin="round"/>
<path d="M33.4146 62.7135H23.5781V72.6335H33.4146V62.7135Z" stroke="#231F20" stroke-width="2" stroke-linecap="round" stroke-linejoin="round"/>
<path d="M49.1372 62.7135H39.3008V72.6335H49.1372V62.7135Z" stroke="#231F20" stroke-width="2" stroke-linecap="round" stroke-linejoin="round"/>
<path d="M64.853 62.7135H55.0166V72.6335H64.853V62.7135Z" stroke="#231F20" stroke-width="2" stroke-linecap="round" stroke-linejoin="round"/>
<path d="M15.8979 13.2572H10.957V22.8964H15.8979V13.2572Z" stroke="#231F20" stroke-width="2" stroke-linecap="round" stroke-linejoin="round"/>
<path d="M25.1255 13.2572H20.1846V22.8964H25.1255V13.2572Z" stroke="#231F20" stroke-width="2" stroke-linecap="round" stroke-linejoin="round"/>
<path d="M34.353 13.2572H29.4121V22.8964H34.353V13.2572Z" stroke="#231F20" stroke-width="2" stroke-linecap="round" stroke-linejoin="round"/>
<path d="M43.5805 13.2572H38.6396V22.8964H43.5805V13.2572Z" stroke="#231F20" stroke-width="2" stroke-linecap="round" stroke-linejoin="round"/>
<path d="M47.8613 18.5732L52.8022 13.2572V22.8899" stroke="#231F20" stroke-width="2" stroke-linecap="round" stroke-linejoin="round"/>
<path d="M57.0889 18.5732L62.0297 13.2572V22.8899" stroke="#231F20" stroke-width="2" stroke-linecap="round" stroke-linejoin="round"/>
</g>
<defs>
<clipPath id="clip0_3164_2508">
<rect width="72.967" height="80" fill="white"/>
</clipPath>
</defs>
</svg>

<svg width="73" height="80" viewBox="0 0 73 80" fill="none" xmlns="http://www.w3.org/2000/svg"><g clip-path="url(#clip0_3164_2508)" stroke="#231F20" stroke-width="2" stroke-linecap="round" stroke-linejoin="round"><path d="M71.911 1.058H1.05v77.878h70.86V1.058z"/><path d="M17.698 33.215H7.86v9.92h9.837v-9.92zm15.717 0h-9.837v9.92h9.837v-9.92zM65.993 9.96H6.98v15.895h59.013V9.959zM49.137 33.215h-9.836v9.92h9.836v-9.92zm15.716 0h-9.836v9.92h9.836v-9.92zM17.698 47.96H7.86v9.92h9.837v-9.92zm15.717 0h-9.837v9.92h9.837v-9.92zm15.722 0h-9.836v9.92h9.836v-9.92zm15.716 0h-9.836v9.92h9.836v-9.92zM17.698 62.714H7.86v9.92h9.837v-9.92zm15.717 0h-9.837v9.92h9.837v-9.92zm15.722 0h-9.836v9.92h9.836v-9.92zm15.716 0h-9.836v9.92h9.836v-9.92z"/><path d="M15.898 13.257h-4.941v9.64h4.94v-9.64zm9.227 0h-4.94v9.64h4.94v-9.64zm9.228 0h-4.94v9.64h4.94v-9.64zm9.227 0h-4.94v9.64h4.94v-9.64zm4.281 5.316l4.941-5.316v9.633m4.287-4.317l4.94-5.316v9.633"/></g><defs><clipPath id="clip0_3164_2508"><path fill="#fff" d="M0 0h72.967v80H0z"/></clipPath></defs></svg>
